X: 54
T: Tom O'Connor's Hornpipe
C: trad.
O: arr. Matt Cranitch
%D:
R: hornpipe
S: Fiddle Hell Online 2022-4-7 handout for Matt Cranitch workshop
Z: 2022 John Chambers <jc:trillian.mit.edu>
M: 4/4
L: 1/8
K: G
"^A"[|] B>c |\
"G"d>Bc>A G>Bd>B | "D"A>DF>E D>FAF | "G"G2G>F G>Bd>B | "D"A2A>G A>gf>e |
"G"d>Bc>A G>Bd>B | "D"A>DF>E D>FAf | "C"g2g>f "D"g>ec>A | "G"G2G>F G2 :|
"^B"|: B>c |\
"G"d>gg2 d>gg2 | d>gf>g e>d (3B^cd | "A"e>aa>f g>fe>d | "C"B>de>f "D"g>fg>e |
"G"d>Bc>A G>Bd>B | "D"A>DF>E D>FAf | "C"g2g>f "D"g>ec>A | "G"G2G>F G2 :|
